src/assets/images/Original-Graphics/4.svg

<svg xmlns="http://www.w3.org/2000/svg" xmlns:xlink="http://www.w3.org/1999/xlink" width="100" zoomAndPan="magnify" viewBox="0 0 75 74.999997" height="100" preserveAspectRatio="xMidYMid meet" version="1.0"><defs><clipPath id="3f799a5ce0"><path d="M 31 11.125 L 44 11.125 L 44 38 L 31 38 Z M 31 11.125 " clip-rule="nonzero"/></clipPath><clipPath id="9669d5e29a"><path d="M 45 11.125 L 61.683594 11.125 L 61.683594 38 L 45 38 Z M 45 11.125 " clip-rule="nonzero"/></clipPath><clipPath id="669e576fd7"><path d="M 13.683594 11.125 L 31 11.125 L 31 38 L 13.683594 38 Z M 13.683594 11.125 " clip-rule="nonzero"/></clipPath><clipPath id="25b830de58"><path d="M 25 38 L 50 38 L 50 63.625 L 25 63.625 Z M 25 38 " clip-rule="nonzero"/></clipPath></defs><path fill="#b13ed9" d="M 16.371094 16.808594 L 23.046875 16.808594 L 23.046875 18.109375 L 16.371094 18.109375 Z M 16.371094 16.808594 " fill-opacity="1" fill-rule="nonzero"/><path fill="#b13ed9" d="M 16.371094 19.421875 L 23.046875 19.421875 L 23.046875 20.722656 L 16.371094 20.722656 Z M 16.371094 19.421875 " fill-opacity="1" fill-rule="nonzero"/><path fill="#b13ed9" d="M 18.554688 22.039062 L 23.046875 22.039062 L 23.046875 23.339844 L 18.554688 23.339844 Z M 18.554688 22.039062 " fill-opacity="1" fill-rule="nonzero"/><path fill="#b13ed9" d="M 16.371094 22.039062 L 17.542969 22.039062 L 17.542969 23.339844 L 16.371094 23.339844 Z M 16.371094 22.039062 " fill-opacity="1" fill-rule="nonzero"/><path fill="#b13ed9" d="M 16.371094 14.390625 L 20 14.390625 L 20 15.691406 L 16.371094 15.691406 Z M 16.371094 14.390625 " fill-opacity="1" fill-rule="nonzero"/><g clip-path="url(#3f799a5ce0)"><path fill="#b13ed9" d="M 32.117188 26.285156 L 37.128906 26.285156 L 37.128906 33.265625 L 35.976562 33.265625 C 35.566406 33.265625 35.3125 33.707031 35.515625 34.058594 L 37.320312 37.183594 C 37.523438 37.539062 38.035156 37.539062 38.238281 37.183594 L 40.042969 34.058594 C 40.246094 33.707031 39.992188 33.265625 39.585938 33.265625 L 38.429688 33.265625 L 38.429688 26.285156 L 42.878906 26.285156 C 43.238281 26.285156 43.527344 25.996094 43.527344 25.636719 L 43.527344 15.039062 C 43.527344 15.03125 43.527344 15.019531 43.527344 15.011719 C 43.527344 15.007812 43.527344 15.007812 43.527344 15.007812 C 43.527344 14.996094 43.527344 14.980469 43.523438 14.96875 C 43.523438 14.964844 43.523438 14.960938 43.523438 14.957031 C 43.523438 14.941406 43.519531 14.929688 43.515625 14.917969 C 43.515625 14.917969 43.515625 14.914062 43.515625 14.914062 C 43.515625 14.902344 43.511719 14.886719 43.507812 14.875 C 43.507812 14.871094 43.503906 14.867188 43.503906 14.863281 C 43.5 14.851562 43.496094 14.839844 43.492188 14.828125 C 43.492188 14.824219 43.492188 14.824219 43.492188 14.824219 C 43.488281 14.808594 43.480469 14.796875 43.476562 14.785156 C 43.476562 14.78125 43.472656 14.777344 43.472656 14.773438 C 43.46875 14.761719 43.460938 14.75 43.457031 14.742188 C 43.457031 14.738281 43.453125 14.738281 43.453125 14.734375 C 43.445312 14.722656 43.441406 14.710938 43.433594 14.699219 C 43.429688 14.695312 43.429688 14.691406 43.425781 14.6875 C 43.417969 14.679688 43.414062 14.667969 43.40625 14.65625 C 43.402344 14.65625 43.402344 14.65625 43.402344 14.652344 C 43.394531 14.644531 43.386719 14.632812 43.375 14.621094 C 43.375 14.617188 43.371094 14.617188 43.367188 14.613281 C 43.359375 14.601562 43.347656 14.589844 43.339844 14.582031 L 40.074219 11.3125 C 40.0625 11.304688 40.050781 11.292969 40.039062 11.285156 C 40.039062 11.28125 40.035156 11.28125 40.03125 11.277344 C 40.023438 11.269531 40.011719 11.257812 40 11.25 C 40 11.25 39.996094 11.25 39.996094 11.25 C 39.984375 11.242188 39.976562 11.234375 39.964844 11.226562 C 39.960938 11.226562 39.957031 11.222656 39.953125 11.21875 C 39.941406 11.214844 39.929688 11.207031 39.917969 11.199219 C 39.917969 11.199219 39.914062 11.199219 39.914062 11.199219 C 39.902344 11.191406 39.890625 11.1875 39.878906 11.179688 C 39.875 11.179688 39.871094 11.179688 39.871094 11.175781 C 39.855469 11.171875 39.84375 11.167969 39.832031 11.160156 C 39.828125 11.160156 39.828125 11.160156 39.828125 11.160156 C 39.816406 11.15625 39.804688 11.152344 39.789062 11.148438 C 39.785156 11.148438 39.785156 11.148438 39.78125 11.144531 C 39.765625 11.140625 39.753906 11.140625 39.738281 11.136719 C 39.726562 11.132812 39.710938 11.132812 39.699219 11.128906 C 39.695312 11.128906 39.691406 11.128906 39.6875 11.128906 C 39.675781 11.125 39.660156 11.125 39.648438 11.125 C 39.648438 11.125 39.644531 11.125 39.644531 11.125 C 39.632812 11.125 39.625 11.125 39.613281 11.125 L 32.117188 11.125 C 31.757812 11.125 31.464844 11.414062 31.464844 11.773438 L 31.464844 25.636719 C 31.464844 25.996094 31.757812 26.285156 32.117188 26.285156 Z M 41.300781 14.382812 L 40.261719 14.375 L 40.261719 13.34375 Z M 32.765625 12.425781 L 38.960938 12.425781 L 38.960938 15.023438 C 38.960938 15.382812 39.25 15.671875 39.609375 15.671875 L 42.226562 15.6875 L 42.226562 24.984375 L 32.765625 24.984375 Z M 32.765625 12.425781 " fill-opacity="1" fill-rule="nonzero"/></g><path fill="#b13ed9" d="M 36.34375 16.808594 L 40.824219 16.808594 L 40.824219 18.109375 L 36.34375 18.109375 Z M 36.34375 16.808594 " fill-opacity="1" fill-rule="nonzero"/><path fill="#b13ed9" d="M 34.152344 16.808594 L 35.332031 16.808594 L 35.332031 18.109375 L 34.152344 18.109375 Z M 34.152344 16.808594 " fill-opacity="1" fill-rule="nonzero"/><path fill="#b13ed9" d="M 34.152344 19.421875 L 40.824219 19.421875 L 40.824219 20.722656 L 34.152344 20.722656 Z M 34.152344 19.421875 " fill-opacity="1" fill-rule="nonzero"/><path fill="#b13ed9" d="M 34.152344 22.039062 L 40.824219 22.039062 L 40.824219 23.339844 L 34.152344 23.339844 Z M 34.152344 22.039062 " fill-opacity="1" fill-rule="nonzero"/><path fill="#b13ed9" d="M 34.152344 14.390625 L 37.78125 14.390625 L 37.78125 15.691406 L 34.152344 15.691406 Z M 34.152344 14.390625 " fill-opacity="1" fill-rule="nonzero"/><g clip-path="url(#9669d5e29a)"><path fill="#b13ed9" d="M 61.308594 15.011719 C 61.308594 15.007812 61.308594 15.007812 61.308594 15.007812 C 61.308594 14.996094 61.304688 14.980469 61.304688 14.96875 C 61.304688 14.964844 61.304688 14.960938 61.304688 14.957031 C 61.300781 14.941406 61.300781 14.929688 61.296875 14.917969 C 61.296875 14.917969 61.296875 14.914062 61.296875 14.914062 C 61.292969 14.902344 61.289062 14.886719 61.289062 14.875 C 61.285156 14.871094 61.285156 14.867188 61.285156 14.863281 C 61.28125 14.851562 61.277344 14.839844 61.273438 14.828125 C 61.273438 14.824219 61.273438 14.824219 61.273438 14.824219 C 61.265625 14.808594 61.261719 14.796875 61.257812 14.785156 C 61.253906 14.78125 61.253906 14.777344 61.25 14.773438 C 61.246094 14.761719 61.242188 14.75 61.234375 14.742188 C 61.234375 14.738281 61.234375 14.738281 61.234375 14.734375 C 61.226562 14.722656 61.21875 14.710938 61.210938 14.699219 C 61.210938 14.695312 61.207031 14.691406 61.207031 14.6875 C 61.199219 14.679688 61.191406 14.667969 61.183594 14.660156 C 61.183594 14.65625 61.183594 14.65625 61.183594 14.652344 C 61.171875 14.644531 61.164062 14.632812 61.15625 14.621094 C 61.152344 14.617188 61.152344 14.617188 61.148438 14.613281 C 61.140625 14.601562 61.128906 14.589844 61.117188 14.582031 L 57.851562 11.3125 C 57.84375 11.304688 57.832031 11.292969 57.820312 11.285156 C 57.816406 11.28125 57.816406 11.28125 57.8125 11.277344 C 57.800781 11.269531 57.789062 11.257812 57.777344 11.25 C 57.765625 11.242188 57.753906 11.234375 57.742188 11.226562 C 57.742188 11.226562 57.738281 11.222656 57.734375 11.222656 C 57.722656 11.214844 57.710938 11.207031 57.699219 11.199219 C 57.695312 11.199219 57.695312 11.199219 57.695312 11.199219 C 57.683594 11.191406 57.671875 11.1875 57.660156 11.183594 C 57.65625 11.179688 57.652344 11.179688 57.648438 11.175781 C 57.636719 11.171875 57.625 11.167969 57.609375 11.160156 C 57.59375 11.15625 57.582031 11.152344 57.570312 11.148438 C 57.566406 11.148438 57.5625 11.148438 57.558594 11.144531 C 57.546875 11.140625 57.535156 11.140625 57.519531 11.136719 C 57.503906 11.132812 57.492188 11.132812 57.476562 11.128906 C 57.472656 11.128906 57.472656 11.128906 57.46875 11.128906 C 57.453125 11.125 57.441406 11.125 57.429688 11.125 C 57.425781 11.125 57.425781 11.125 57.425781 11.125 C 57.414062 11.125 57.402344 11.125 57.394531 11.125 L 49.898438 11.125 C 49.539062 11.125 49.246094 11.414062 49.246094 11.773438 L 49.246094 25.636719 C 49.246094 25.996094 49.539062 26.285156 49.898438 26.285156 L 55.199219 26.285156 L 55.199219 27.519531 C 55.199219 28.375 54.503906 29.074219 53.648438 29.074219 L 49.566406 29.074219 C 47.992188 29.074219 46.714844 30.351562 46.714844 31.925781 L 46.714844 33.265625 L 45.558594 33.265625 C 45.152344 33.265625 44.894531 33.707031 45.101562 34.058594 L 46.90625 37.183594 C 47.109375 37.539062 47.617188 37.539062 47.820312 37.183594 L 49.625 34.058594 C 49.832031 33.707031 49.574219 33.265625 49.167969 33.265625 L 48.015625 33.265625 L 48.015625 31.925781 C 48.015625 31.070312 48.710938 30.375 49.566406 30.375 L 53.648438 30.375 C 55.222656 30.375 56.5 29.09375 56.5 27.519531 L 56.5 26.285156 L 60.660156 26.285156 C 61.019531 26.285156 61.308594 25.996094 61.308594 25.636719 L 61.308594 15.039062 C 61.308594 15.03125 61.308594 15.019531 61.308594 15.011719 Z M 59.082031 14.382812 L 58.042969 14.375 L 58.042969 13.34375 Z M 50.546875 24.984375 L 50.546875 12.425781 L 56.742188 12.425781 L 56.742188 15.023438 C 56.742188 15.382812 57.03125 15.671875 57.390625 15.671875 L 60.007812 15.6875 L 60.007812 24.984375 Z M 50.546875 24.984375 " fill-opacity="1" fill-rule="nonzero"/></g><path fill="#b13ed9" d="M 51.933594 16.808594 L 58.605469 16.808594 L 58.605469 18.109375 L 51.933594 18.109375 Z M 51.933594 16.808594 " fill-opacity="1" fill-rule="nonzero"/><path fill="#b13ed9" d="M 57.394531 19.421875 L 58.605469 19.421875 L 58.605469 20.722656 L 57.394531 20.722656 Z M 57.394531 19.421875 " fill-opacity="1" fill-rule="nonzero"/><path fill="#b13ed9" d="M 51.933594 19.421875 L 56.535156 19.421875 L 56.535156 20.722656 L 51.933594 20.722656 Z M 51.933594 19.421875 " fill-opacity="1" fill-rule="nonzero"/><path fill="#b13ed9" d="M 51.933594 22.039062 L 58.605469 22.039062 L 58.605469 23.339844 L 51.933594 23.339844 Z M 51.933594 22.039062 " fill-opacity="1" fill-rule="nonzero"/><path fill="#b13ed9" d="M 51.933594 14.390625 L 55.558594 14.390625 L 55.558594 15.691406 L 51.933594 15.691406 Z M 51.933594 14.390625 " fill-opacity="1" fill-rule="nonzero"/><g clip-path="url(#669e576fd7)"><path fill="#b13ed9" d="M 27.546875 31.925781 L 27.546875 33.265625 L 26.390625 33.265625 C 25.984375 33.265625 25.730469 33.707031 25.933594 34.058594 L 27.738281 37.183594 C 27.941406 37.539062 28.449219 37.539062 28.65625 37.183594 L 30.460938 34.058594 C 30.664062 33.707031 30.40625 33.265625 30 33.265625 L 28.847656 33.265625 L 28.847656 31.925781 C 28.847656 30.351562 27.566406 29.074219 25.992188 29.074219 L 21.914062 29.074219 C 21.054688 29.074219 20.359375 28.375 20.359375 27.519531 L 20.359375 26.285156 L 25.097656 26.285156 C 25.457031 26.285156 25.75 25.996094 25.75 25.636719 L 25.75 15.039062 C 25.75 15.03125 25.75 15.019531 25.75 15.011719 C 25.75 15.007812 25.75 15.007812 25.75 15.007812 C 25.746094 14.996094 25.746094 14.980469 25.746094 14.96875 C 25.746094 14.964844 25.742188 14.960938 25.742188 14.957031 C 25.742188 14.941406 25.738281 14.929688 25.738281 14.917969 C 25.738281 14.917969 25.738281 14.914062 25.738281 14.914062 C 25.734375 14.902344 25.730469 14.886719 25.726562 14.875 C 25.726562 14.871094 25.726562 14.867188 25.726562 14.863281 C 25.722656 14.851562 25.71875 14.839844 25.714844 14.828125 C 25.710938 14.824219 25.710938 14.824219 25.710938 14.824219 C 25.707031 14.808594 25.703125 14.796875 25.695312 14.785156 C 25.695312 14.78125 25.695312 14.777344 25.691406 14.773438 C 25.6875 14.761719 25.683594 14.75 25.675781 14.742188 C 25.675781 14.738281 25.675781 14.738281 25.671875 14.734375 C 25.667969 14.722656 25.660156 14.710938 25.652344 14.699219 C 25.652344 14.695312 25.648438 14.691406 25.644531 14.691406 C 25.640625 14.679688 25.632812 14.667969 25.625 14.660156 C 25.625 14.65625 25.625 14.65625 25.621094 14.65625 C 25.613281 14.644531 25.605469 14.632812 25.597656 14.621094 C 25.59375 14.617188 25.589844 14.617188 25.589844 14.613281 C 25.578125 14.601562 25.570312 14.589844 25.558594 14.582031 L 22.292969 11.316406 C 22.28125 11.304688 22.273438 11.292969 22.261719 11.285156 C 22.257812 11.28125 22.253906 11.28125 22.253906 11.277344 C 22.242188 11.269531 22.230469 11.261719 22.21875 11.25 C 22.21875 11.25 22.21875 11.25 22.214844 11.25 C 22.207031 11.242188 22.195312 11.234375 22.183594 11.226562 C 22.179688 11.226562 22.175781 11.222656 22.175781 11.222656 C 22.164062 11.214844 22.152344 11.207031 22.140625 11.199219 C 22.136719 11.199219 22.136719 11.199219 22.132812 11.199219 C 22.121094 11.191406 22.113281 11.1875 22.101562 11.183594 C 22.097656 11.179688 22.09375 11.179688 22.089844 11.175781 C 22.078125 11.171875 22.066406 11.167969 22.050781 11.160156 C 22.050781 11.160156 22.050781 11.160156 22.046875 11.160156 C 22.035156 11.15625 22.023438 11.152344 22.011719 11.148438 C 22.007812 11.148438 22.003906 11.148438 22 11.144531 C 21.988281 11.144531 21.972656 11.140625 21.960938 11.136719 C 21.960938 11.136719 21.960938 11.136719 21.957031 11.136719 C 21.945312 11.132812 21.933594 11.132812 21.917969 11.128906 C 21.914062 11.128906 21.910156 11.128906 21.90625 11.128906 C 21.894531 11.128906 21.882812 11.125 21.867188 11.125 C 21.855469 11.125 21.84375 11.125 21.832031 11.125 L 14.335938 11.125 C 13.976562 11.125 13.6875 11.414062 13.6875 11.773438 L 13.6875 25.636719 C 13.6875 25.996094 13.976562 26.285156 14.335938 26.285156 L 19.058594 26.285156 L 19.058594 27.519531 C 19.058594 29.09375 20.339844 30.375 21.910156 30.375 L 25.992188 30.375 C 26.847656 30.375 27.546875 31.070312 27.546875 31.925781 Z M 23.519531 14.382812 L 22.484375 14.375 L 22.484375 13.34375 Z M 14.988281 12.425781 L 21.183594 12.425781 L 21.183594 15.023438 C 21.183594 15.382812 21.472656 15.671875 21.828125 15.671875 L 24.449219 15.6875 L 24.449219 24.984375 L 14.988281 24.984375 Z M 14.988281 12.425781 " fill-opacity="1" fill-rule="nonzero"/></g><g clip-path="url(#25b830de58)"><path fill="#b13ed9" d="M 48.742188 40.945312 C 48.070312 40.460938 47.132812 40.035156 45.960938 39.675781 C 43.683594 38.984375 40.679688 38.601562 37.496094 38.601562 C 34.316406 38.601562 31.308594 38.984375 29.03125 39.675781 C 27.859375 40.035156 26.925781 40.460938 26.253906 40.945312 C 25.226562 41.683594 25.011719 42.425781 25.011719 42.917969 C 25.011719 42.941406 25.011719 42.96875 25.011719 42.992188 C 25.011719 43.007812 25.011719 43.023438 25.011719 43.039062 L 25.011719 53.886719 C 25.011719 53.910156 25.011719 53.9375 25.011719 53.960938 C 25.011719 53.976562 25.011719 53.992188 25.011719 54.007812 L 25.011719 59.550781 C 25.011719 60.042969 25.226562 60.785156 26.253906 61.527344 C 26.925781 62.011719 27.859375 62.4375 29.03125 62.792969 C 31.308594 63.488281 34.316406 63.871094 37.496094 63.871094 C 40.679688 63.871094 43.683594 63.488281 45.960938 62.792969 C 47.132812 62.4375 48.070312 62.011719 48.742188 61.527344 C 49.769531 60.785156 49.984375 60.046875 49.984375 59.550781 L 49.984375 54.007812 C 49.984375 53.992188 49.984375 53.976562 49.984375 53.960938 C 49.984375 53.9375 49.984375 53.910156 49.984375 53.886719 L 49.984375 43.039062 C 49.984375 43.023438 49.984375 43.007812 49.984375 42.992188 C 49.984375 42.96875 49.984375 42.941406 49.984375 42.917969 C 49.984375 42.425781 49.769531 41.683594 48.742188 40.945312 Z M 47.902344 59.554688 C 47.902344 60.082031 46.851562 60.746094 45.21875 61.242188 C 43.175781 61.863281 40.429688 62.207031 37.496094 62.207031 C 34.5625 62.207031 31.820312 61.863281 29.773438 61.242188 C 28.144531 60.746094 27.09375 60.082031 27.09375 59.554688 L 27.09375 56.367188 C 27.640625 56.648438 28.289062 56.902344 29.03125 57.128906 C 31.3125 57.824219 34.316406 58.207031 37.496094 58.207031 C 40.679688 58.207031 43.683594 57.824219 45.960938 57.128906 C 46.707031 56.902344 47.355469 56.648438 47.902344 56.367188 Z M 47.902344 53.886719 C 47.902344 54.417969 46.851562 55.082031 45.21875 55.578125 C 43.175781 56.199219 40.429688 56.542969 37.496094 56.542969 C 34.5625 56.542969 31.820312 56.199219 29.773438 55.578125 C 28.144531 55.082031 27.09375 54.417969 27.09375 53.886719 L 27.09375 51.0625 C 27.640625 51.34375 28.289062 51.597656 29.03125 51.824219 C 31.3125 52.519531 34.316406 52.902344 37.496094 52.902344 C 40.679688 52.902344 43.683594 52.519531 45.960938 51.824219 C 46.707031 51.597656 47.355469 51.34375 47.902344 51.0625 Z M 47.902344 48.34375 L 47.902344 48.582031 C 47.902344 49.113281 46.851562 49.777344 45.21875 50.273438 C 43.175781 50.894531 40.429688 51.238281 37.496094 51.238281 C 34.5625 51.238281 31.820312 50.894531 29.773438 50.273438 C 28.144531 49.777344 27.09375 49.113281 27.09375 48.582031 L 27.09375 45.398438 C 27.640625 45.679688 28.289062 45.933594 29.03125 46.160156 C 31.3125 46.855469 34.316406 47.234375 37.496094 47.234375 C 40.679688 47.234375 43.683594 46.855469 45.960938 46.160156 C 46.707031 45.933594 47.355469 45.679688 47.902344 45.398438 Z M 45.21875 44.605469 C 43.175781 45.230469 40.429688 45.574219 37.496094 45.574219 C 34.5625 45.574219 31.820312 45.230469 29.773438 44.605469 C 28.144531 44.109375 27.09375 43.449219 27.09375 42.917969 C 27.09375 42.390625 28.144531 41.726562 29.773438 41.230469 C 31.820312 40.605469 34.5625 40.261719 37.496094 40.261719 C 40.429688 40.261719 43.175781 40.605469 45.21875 41.230469 C 46.851562 41.726562 47.902344 42.390625 47.902344 42.917969 C 47.902344 43.449219 46.851562 44.109375 45.21875 44.605469 Z M 45.21875 44.605469 " fill-opacity="1" fill-rule="nonzero"/></g></svg>

<svg xmlns="http://www.w3.org/2000/svg" width="100" height="100" viewBox="0 0 75 75"><defs><clipPath id="a"><path d="M31 11.13h13V38H31Zm0 0"/></clipPath><clipPath id="b"><path d="M45 11.13h16.68V38H45Zm0 0"/></clipPath><clipPath id="c"><path d="M13.68 11.13H31V38H13.68Zm0 0"/></clipPath><clipPath id="d"><path d="M25 38h25v25.63H25Zm0 0"/></clipPath></defs><path fill="currentColor" d="M16.37 16.8h6.68v1.3h-6.68Zm0 2.62h6.68v1.3h-6.68Zm2.18 2.62h4.5v1.3h-4.5Zm-2.18 0h1.17v1.3h-1.17Zm0-7.64H20v1.3h-3.63Zm0 0"/><g clip-path="url(#a)"><path fill="currentColor" d="M32.12 26.29h5v6.98h-1.14a.53.53 0 0 0-.46.79l1.8 3.12c.2.36.72.36.92 0l1.8-3.12a.53.53 0 0 0-.45-.8h-1.16V26.3h4.45c.36 0 .65-.3.65-.65V14.96l-.01-.04-.01-.04v-.02l-.02-.03-.01-.04v-.02l-.02-.03-.03-.04v-.01l-.02-.03-.03-.04h-.01l-.03-.04-3.27-3.27-.03-.02v-.01l-.04-.03-.04-.02v-.01l-.04-.02-.04-.02-.05-.02-.04-.01-.05-.01-.04-.01h-7.6a.65.65 0 0 0-.65.64v13.87c0 .36.3.65.66.65m9.18-11.9-1.04-.02v-1.03Zm-8.53-1.96h6.2v2.6c0 .35.28.64.64.64l2.62.02v9.3h-9.46Zm0 0"/></g><path fill="currentColor" d="M36.34 16.8h4.48v1.3h-4.48Zm-2.19 0h1.18v1.3h-1.18Zm0 2.62h6.67v1.3h-6.67Zm0 2.62h6.67v1.3h-6.67Zm0-7.64h3.63v1.3h-3.63Zm0 0"/><g clip-path="url(#b)"><path fill="currentColor" d="M61.3 15.01v-.09l-.01-.04v-.02l-.02-.03-.01-.04-.01-.02-.02-.03-.02-.04v-.01l-.03-.03-.02-.04h-.01l-.03-.04-3.27-3.27-.03-.02v-.01l-.04-.03-.04-.02-.04-.03-.04-.02h-.01l-.04-.02-.04-.01h-.01l-.04-.01-.04-.01h-7.59a.65.65 0 0 0-.64.64v13.87c0 .36.29.65.65.65h5.3v1.23c0 .86-.7 1.55-1.55 1.55h-4.08a2.85 2.85 0 0 0-2.86 2.86v1.34h-1.15c-.4 0-.67.44-.46.79l1.8 3.12c.2.36.72.36.92 0l1.8-3.12a.53.53 0 0 0-.45-.8h-1.15v-1.33c0-.86.7-1.55 1.55-1.55h4.08a2.86 2.86 0 0 0 2.85-2.86v-1.23h4.16c.36 0 .65-.3.65-.65zm-2.22-.63h-1.04v-1.04Zm-8.53 10.6V12.43h6.2v2.6c0 .35.28.64.64.64l2.62.02v9.3Zm0 0"/></g><path fill="currentColor" d="M51.93 16.8h6.68v1.3h-6.68Zm5.47 2.62h1.2v1.3h-1.2Zm-5.47 0h4.6v1.3h-4.6Zm0 2.62h6.68v1.3h-6.68Zm0-7.64h3.63v1.3h-3.63Zm0 0"/><g clip-path="url(#c)"><path fill="currentColor" d="M27.55 31.93v1.34h-1.16c-.4 0-.66.44-.46.79l1.8 3.12c.21.36.72.36.93 0l1.8-3.12a.53.53 0 0 0-.46-.8h-1.15v-1.33a2.86 2.86 0 0 0-2.86-2.86h-4.08c-.86 0-1.55-.7-1.55-1.55v-1.23h4.74c.36 0 .65-.3.65-.65V14.96l-.01-.04-.01-.04v-.02l-.02-.03-.01-.04v-.02l-.02-.03-.03-.04-.02-.04-.03-.04h-.01l-.03-.04-3.27-3.26q0-.03-.03-.03v-.01l-.04-.03-.04-.02-.04-.03-.04-.02h-.01l-.04-.02-.04-.01H22l-.04-.01-.04-.01h-7.59a.65.65 0 0 0-.64.64v13.87c0 .36.29.65.65.65h4.72v1.23a2.86 2.86 0 0 0 2.85 2.86h4.08c.86 0 1.56.69 1.56 1.55m-4.03-17.55h-1.04v-1.04Zm-8.53-1.95h6.2v2.6c0 .35.28.64.64.64l2.62.02v9.3h-9.46Zm0 0"/></g><g clip-path="url(#d)"><path fill="currentColor" d="M48.74 40.95a10 10 0 0 0-2.78-1.27 30 30 0 0 0-8.46-1.08c-3.18 0-6.2.38-8.47 1.08q-1.76.54-2.78 1.27c-1.02.73-1.24 1.48-1.24 1.97v16.63c0 .5.22 1.24 1.24 1.98q1.02.72 2.78 1.26a30 30 0 0 0 8.47 1.08 30 30 0 0 0 8.46-1.08 10 10 0 0 0 2.78-1.26c1.03-.74 1.24-1.48 1.24-1.98V42.92c0-.5-.21-1.24-1.24-1.97m-.84 18.6c0 .53-1.05 1.2-2.68 1.7-2.04.61-4.79.96-7.72.96-2.94 0-5.68-.35-7.73-.97-1.63-.5-2.68-1.16-2.68-1.69v-3.18q.83.42 1.94.76c2.28.7 5.29 1.08 8.47 1.08s6.18-.39 8.46-1.08q1.13-.34 1.94-.76Zm0-5.66c0 .53-1.05 1.2-2.68 1.69a28 28 0 0 1-7.72.96c-2.94 0-5.68-.34-7.73-.96-1.63-.5-2.68-1.16-2.68-1.7v-2.82q.83.43 1.94.76c2.28.7 5.29 1.08 8.47 1.08s6.18-.38 8.46-1.08q1.13-.34 1.94-.76Zm0-5.55v.24c0 .53-1.05 1.2-2.68 1.7-2.04.61-4.79.96-7.72.96-2.94 0-5.68-.35-7.73-.97-1.63-.5-2.68-1.16-2.68-1.69V45.4q.83.42 1.94.76c2.28.7 5.29 1.07 8.47 1.07s6.18-.37 8.46-1.07q1.13-.34 1.94-.76Zm-2.68-3.73a28 28 0 0 1-7.72.96c-2.94 0-5.68-.34-7.73-.96-1.63-.5-2.68-1.16-2.68-1.7 0-.52 1.05-1.18 2.68-1.68 2.05-.62 4.8-.97 7.73-.97s5.68.35 7.72.97c1.63.5 2.68 1.16 2.68 1.69s-1.05 1.19-2.68 1.69m0 0"/></g></svg>
